X: 30108
T: Old As The Hills
R: jig
M: 6/8
K: Amajor
ABA cBA|d2 e fga|ABA cBA|dB=G Bcd|
ecA Ace|d2e fga|ece dBG|1 ABA A2E:|2 ABA A2B||
c2e ecA|Aca ecA|c2e ecA|Bcd dcB|
c2e ecA|cde fga|ece dBG|1 ABA A2B:|2 ABA A2E||

